X: 435
T:Waltz
M:3/4
L:1/8
R:Waltz
Z:Francis Coutant
Z:abc reconstructed Steve Mansfield
N:Posted to the woodenflute mailing list September 2001
K:Bm
fg |f3 B fg |e4 ed |c4 BA |
F4 fg |f2 fa gf |e4 ed |cd ef ec |
B4 fg |f3 B fg |e4 ed |c4 BA |
F4 fg |f2 fa gf |e4 ed |cd ef ec |
B4 c2 |dF Fd Fd |cE Ec Ec |BA GB AG |
FE DE FD |dF Fd Fd |cE Ec Ec |BA Bd cA |
B4 c2 |dF Fd Fd |cE Ec Ec |BA GB AG |
FE DE FD |dF Fd Fd |cE Ec Ec |BA Bd cA |
B4 |]

